images/logo.svg

<svg width="32" height="32" viewBox="0 0 32 32" fill="none" xmlns="http://www.w3.org/2000/svg">
<path d="M0 2C0 0.895431 0.895 0 2 0H30C31.105 0 32 0.895431 32 2V30C32 31.1046 31.105 32 30 32H2C0.895 32 0 31.1046 0 30V2Z" fill="#0278FE"/>
<path d="M32 6H0V8H32V6Z" fill="#2A2C2F"/>
<path d="M13 6H11V32H13V6Z" fill="#2A2C2F"/>
</svg>

<svg xmlns="http://www.w3.org/2000/svg" width="32" height="32" fill="none">
  <path fill="#0278FE" d="M0 2a2 2 0 0 1 2-2h28a2 2 0 0 1 2 2v28a2 2 0 0 1-2 2H2a2 2 0 0 1-2-2V2Z"/>
  <path fill="#2A2C2F" d="M32 6H0v2h32V6Z"/>
  <path fill="#2A2C2F" d="M13 6h-2v26h2V6Z"/>
</svg>
